svgs/light/game-board.svg

<svg xmlns="http://www.w3.org/2000/svg" viewBox="0 0 448 512"><!-- Font Awesome Pro 6.0.0-alpha2 by @fontawesome - https://fontawesome.com License - https://fontawesome.com/license (Commercial License) --><path d="M384 32H64C28.654 32 0 60.654 0 96V416C0 451.346 28.654 480 64 480H384C419.346 480 448 451.346 448 416V96C448 60.654 419.346 32 384 32ZM416 416C416 433.645 401.645 448 384 448H64C46.355 448 32 433.645 32 416V96C32 78.355 46.355 64 64 64H384C401.645 64 416 78.355 416 96V416ZM368 176C376.844 176 384 168.844 384 160S376.844 144 368 144H336V112C336 103.156 328.844 96 320 96S304 103.156 304 112V144H240V112C240 103.156 232.844 96 224 96S208 103.156 208 112V144H144V112C144 103.156 136.844 96 128 96S112 103.156 112 112V144H80C71.156 144 64 151.156 64 160S71.156 176 80 176H112V240H80C71.156 240 64 247.156 64 256S71.156 272 80 272H112V336H80C71.156 336 64 343.156 64 352S71.156 368 80 368H112V400C112 408.844 119.156 416 128 416S144 408.844 144 400V368H208V400C208 408.844 215.156 416 224 416S240 408.844 240 400V368H304V400C304 408.844 311.156 416 320 416S336 408.844 336 400V368H368C376.844 368 384 360.844 384 352S376.844 336 368 336H336V272H368C376.844 272 384 264.844 384 256S376.844 240 368 240H336V176H368ZM208 336H144V272H208V336ZM208 240H144V176H208V240ZM304 336H240V272H304V336ZM304 240H240V176H304V240Z"/></svg>

<svg xmlns="http://www.w3.org/2000/svg" viewBox="0 0 448 512"><!--! Font Awesome Pro 6.3.0 by @fontawesome - https://fontawesome.com License - https://fontawesome.com/license (Commercial License) Copyright 2023 Fonticons, Inc. --><path d="M384 32h-320c-35.35 0-64 28.65-64 64v320c0 35.35 28.65 64 64 64h320c35.35 0 64-28.65 64-64V96C448 60.65 419.3 32 384 32zM416 416c0 17.64-14.36 32-32 32H64c-17.64 0-32-14.36-32-32V96c0-17.64 14.36-32 32-32h320c17.64 0 32 14.36 32 32V416zM368 176C376.8 176 384 168.8 384 160s-7.156-16-16-16h-32v-32C336 103.2 328.8 96 320 96s-16 7.156-16 16v32h-64v-32c0-8.844-7.156-16-15.1-16S208 103.2 208 112v32h-64v-32C144 103.2 136.8 96 128 96S112 103.2 112 112v32h-32C71.16 144 64 151.2 64 160s7.156 16 16 16h32v64h-32C71.16 240 64 247.2 64 256S71.16 272 80 272h32v64h-32C71.16 336 64 343.2 64 352s7.156 16 16 16h32v32C112 408.8 119.2 416 128 416s16-7.156 16-16v-32h64v32c0 8.844 7.156 16 16 16S240 408.8 240 400v-32h64v32c0 8.844 7.156 16 16 16s16-7.156 16-16v-32h32c8.844 0 16-7.156 16-16s-7.156-16-16-16h-32v-64h32c8.844 0 16-7.156 16-16S376.8 240 368 240h-32v-64H368zM208 336H144L144 272h64V336zM208 240h-64l.0001-64H208V240zM304 336H240v-64h64L304 336zM304 240h-64v-64h64L304 240z"/></svg>
